app/assets/images/icons/active/metro.svg

<svg width="32" height="232" viewBox="0 0 32 232" xmlns="http://www.w3.org/2000/svg" xmlns:sketch="http://www.bohemiancoding.com/sketch/ns"><title>metro</title><g sketch:type="MSPage" fill="none"><path d="M22.578 127.4c-2.421 0-2.96 1.335-4.187 4.974l-2.361 6.958-2.423-6.958c-1.226-3.639-1.765-4.974-4.185-4.974-1.226 0-2.752.484-3.201 2.898l-1.914 10.399c-.389 2.101-.807 4.402-.807 5.086 0 1.021.838 2.187 2.272 2.187 2.185 0 2.574-1.476 2.813-3.039l1.433-8.979 3.321 9.944c.479 1.477 1.195 2.074 2.659 2.074 1.468 0 2.186-.597 2.665-2.074l3.261-9.944 1.492 8.979c.238 1.563.627 3.039 2.812 3.039 1.435 0 2.272-1.166 2.272-2.187 0-.684-.419-2.985-.81-5.086l-1.909-10.399c-.449-2.414-1.976-2.898-3.203-2.898zm0 0" fill="#206FAC" sketch:type="MSShapeGroup"/><path d="M22.578 87.4c-2.421 0-2.96 1.335-4.187 4.974l-2.361 6.958-2.423-6.958c-1.226-3.639-1.765-4.974-4.185-4.974-1.226 0-2.752.484-3.201 2.898l-1.914 10.399c-.389 2.101-.807 4.402-.807 5.086 0 1.021.838 2.187 2.272 2.187 2.185 0 2.574-1.476 2.813-3.039l1.433-8.979 3.321 9.944c.479 1.477 1.195 2.074 2.659 2.074 1.468 0 2.186-.597 2.665-2.074l3.261-9.944 1.492 8.979c.238 1.563.627 3.039 2.812 3.039 1.435 0 2.272-1.166 2.272-2.187 0-.684-.419-2.985-.81-5.086l-1.909-10.399c-.449-2.414-1.976-2.898-3.203-2.898zm0 0" fill="#fff" sketch:type="MSShapeGroup"/><path d="M22.578 47.4c-2.421 0-2.96 1.335-4.187 4.974l-2.361 6.958-2.423-6.958c-1.226-3.639-1.765-4.974-4.185-4.974-1.226 0-2.752.484-3.201 2.898l-1.914 10.399c-.389 2.101-.807 4.402-.807 5.086 0 1.021.838 2.187 2.272 2.187 2.185 0 2.574-1.476 2.813-3.039l1.433-8.979 3.321 9.944c.479 1.477 1.195 2.074 2.659 2.074 1.468 0 2.186-.597 2.665-2.074l3.261-9.944 1.492 8.979c.238 1.563.627 3.039 2.812 3.039 1.435 0 2.272-1.166 2.272-2.187 0-.684-.419-2.985-.81-5.086l-1.909-10.399c-.449-2.414-1.976-2.898-3.203-2.898zm0 0" fill="#67737B" sketch:type="MSShapeGroup"/><path d="M22.578 7.4c-2.421 0-2.96 1.335-4.187 4.974l-2.361 6.958-2.423-6.958c-1.226-3.639-1.765-4.974-4.185-4.974-1.226 0-2.752.484-3.201 2.898l-1.914 10.399c-.389 2.101-.807 4.402-.807 5.086 0 1.021.838 2.187 2.272 2.187 2.185 0 2.574-1.476 2.813-3.039l1.433-8.979 3.321 9.944c.479 1.477 1.195 2.074 2.659 2.074 1.468 0 2.186-.597 2.665-2.074l3.261-9.944 1.492 8.979c.238 1.563.627 3.039 2.812 3.039 1.435 0 2.272-1.166 2.272-2.187 0-.684-.419-2.985-.81-5.086l-1.909-10.399c-.449-2.414-1.976-2.898-3.203-2.898zm0 0" fill="#3A434E" sketch:type="MSShapeGroup"/></g></svg>

<?xml version="1.0" encoding="UTF-8" standalone="no"?>
<svg width="32px" height="232px" viewBox="0 0 32 232" version="1.1" xmlns="http://www.w3.org/2000/svg" xmlns:xlink="http://www.w3.org/1999/xlink" xmlns:sketch="http://www.bohemiancoding.com/sketch/ns">
    <title>metro</title>
    <description>Created with Sketch (http://www.bohemiancoding.com/sketch)</description>
    <defs></defs>
    <g id="Transport" stroke="none" stroke-width="1" fill="none" fill-rule="evenodd" sketch:type="MSPage">
        <path d="M22.578,127.4 C20.157,127.4 19.618,128.735 18.391,132.374 L16.03,139.332 L13.607,132.374 C12.381,128.735 11.842,127.4 9.422,127.4 C8.196,127.4 6.67,127.884 6.221,130.298 L4.307,140.697 C3.918,142.798 3.5,145.099 3.5,145.783 C3.5,146.804 4.338,147.97 5.772,147.97 C7.957,147.97 8.346,146.494 8.585,144.931 L10.018,135.952 L13.339,145.896 C13.818,147.373 14.534,147.97 15.998,147.97 C17.466,147.97 18.184,147.373 18.663,145.896 L21.924,135.952 L23.416,144.931 C23.654,146.494 24.043,147.97 26.228,147.97 C27.663,147.97 28.5,146.804 28.5,145.783 C28.5,145.099 28.081,142.798 27.69,140.697 L25.781,130.298 C25.332,127.884 23.805,127.4 22.578,127.4 Z M22.578,127.4" id="metro--white" fill="#206FAC" sketch:type="MSShapeGroup"></path>
        <path d="M22.578,87.4 C20.157,87.4 19.618,88.735 18.391,92.374 L16.03,99.332 L13.607,92.374 C12.381,88.735 11.842,87.4 9.422,87.4 C8.196,87.4 6.67,87.884 6.221,90.298 L4.307,100.697 C3.918,102.798 3.5,105.099 3.5,105.783 C3.5,106.804 4.338,107.97 5.772,107.97 C7.957,107.97 8.346,106.494 8.585,104.931 L10.018,95.952 L13.339,105.896 C13.818,107.373 14.534,107.97 15.998,107.97 C17.466,107.97 18.184,107.373 18.663,105.896 L21.924,95.952 L23.416,104.931 C23.654,106.494 24.043,107.97 26.228,107.97 C27.663,107.97 28.5,106.804 28.5,105.783 C28.5,105.099 28.081,102.798 27.69,100.697 L25.781,90.298 C25.332,87.884 23.805,87.4 22.578,87.4 Z M22.578,87.4" id="metro--subdued-grey" fill="#FFFFFF" sketch:type="MSShapeGroup"></path>
        <path d="M22.578,47.4 C20.157,47.4 19.618,48.735 18.391,52.374 L16.03,59.332 L13.607,52.374 C12.381,48.735 11.842,47.4 9.422,47.4 C8.196,47.4 6.67,47.884 6.221,50.298 L4.307,60.697 C3.918,62.798 3.5,65.099 3.5,65.783 C3.5,66.804 4.338,67.97 5.772,67.97 C7.957,67.97 8.346,66.494 8.585,64.931 L10.018,55.952 L13.339,65.896 C13.818,67.373 14.534,67.97 15.998,67.97 C17.466,67.97 18.184,67.373 18.663,65.896 L21.924,55.952 L23.416,64.931 C23.654,66.494 24.043,67.97 26.228,67.97 C27.663,67.97 28.5,66.804 28.5,65.783 C28.5,65.099 28.081,62.798 27.69,60.697 L25.781,50.298 C25.332,47.884 23.805,47.4 22.578,47.4 Z M22.578,47.4" id="metro--body-grey" fill="#67737B" sketch:type="MSShapeGroup"></path>
        <path d="M22.578,7.4 C20.157,7.4 19.618,8.735 18.391,12.374 L16.03,19.332 L13.607,12.374 C12.381,8.735 11.842,7.4 9.422,7.4 C8.196,7.4 6.67,7.884 6.221,10.298 L4.307,20.697 C3.918,22.798 3.5,25.099 3.5,25.783 C3.5,26.804 4.338,27.97 5.772,27.97 C7.957,27.97 8.346,26.494 8.585,24.931 L10.018,15.952 L13.339,25.896 C13.818,27.373 14.534,27.97 15.998,27.97 C17.466,27.97 18.184,27.373 18.663,25.896 L21.924,15.952 L23.416,24.931 C23.654,26.494 24.043,27.97 26.228,27.97 C27.663,27.97 28.5,26.804 28.5,25.783 C28.5,25.099 28.081,22.798 27.69,20.697 L25.781,10.298 C25.332,7.884 23.805,7.4 22.578,7.4 Z M22.578,7.4" id="metro--title-grey" fill="#3A434E" sketch:type="MSShapeGroup"></path>
    </g>
</svg>
